X: 1042
T: You Married My Daughter And Yet You Didn't
B: jims roots
M:C|
R: reel
Q: 1/4=100
K:G
V:1 
B2d2 | "G"g2g2 fgaf | g2g2 B2d2 | "D"f2ff efge | f2f2 B2d2 |
"G"g2g2 fgaf | g2g2 B2d2 | "D"fgfe dcAF | "G"G4 :|
|: "G"BcdB | G2BG DGBG | e2d2 "D"ABcA | F2AF DFAF | e2d2 "G"BcdB |
 G2BG DGBG | e2d2 "D"ABcA | F2fe dcBA | "G"G4 :|
% abcbook-tune_id 6298c2974ad147de35cb424f


% abcbook-boost 0
% abcbook-tablature 
% abcbook-transpose 
% abcbook-lastupdated 1654178457164
% abcbook-soundfonts 
% abcbook-repeats 1


